shader_type spatial;
render_mode cull_disabled;

varying vec3 worldPos;

void vertex() {

}

void fragment() {
	// Called for every pixel the material is visible on.
}

//void light() {
	// Called for every pixel for every light affecting the CanvasItem.
	// Uncomment to replace the default light processing function with this one.
//}
